!!!OTL: AUF MEINEM GRAB DA LIEGT EIN STEIN
!!!ARE: Europa, Mitteleuropa, Deutschland, Westfalen
!!!SCT: Z0259
!!!YEM: Copyright 1995, estate of Helmut Schaffrath.
**kern
*ICvox
*Ivox
*M2/4
*k[f#]
*G:
{8d
8g
8a
=1
4b
4dd
=2
8b
8b
8a
8a
=3
8g}
{8d
8g
8b
=4
4dd
8gg
8ee
=5
8cc
8b
8cc
8b
=6
8cc}
{8b
8a
8b
=7
4cc
8dd
8cc
=8
8b
8a
8b
8a
=9
8b}
{8a
8g
8a
=10
8b
8b
8dd
8dd
=11
8b
8b
8a
8a
=12
8g}
==
!!!AGN: lyrisches Lied, Romanze, Tod
!!!ONB: ESAC (Essen Associative Code) Database: ZUCCAL
!!!AMT: simple duple
!!!AIN: vox
!!!EED: Helmut Schaffrath
!!!EEV: 1.0
*-
